!!!!SEGMENT: pl-kk--kk-i-2--043_anonim--veni-creator-spiritus.krn
!!!cenid: 16xx:1667
!!!COM: Anonim
!!!COM-rismid: pe30004985
!!!CDT:
!!!CNT:
!!!OTL: Veni creator Spiritus
!!!PDT:
!!!AGN: Sacred
!!!SMS-siglum: PL-Kk
!!!SMS-shelfmark: Kk.I.2
!!!SMS-shelfwork: 043 W
!!!NIFC-rismid: 300258061
!!!URL-scan: http://repozytorium.nifc.pl/skany/pl-kk-nut--i-2
!!!ONB-nifc: skany: C: 0069; A: 0172; T: 0272; B: 0372;
!!!key:
**kern	**text	**kern	**text	**kern	**text	**kern	**text
*part4	*part4	*part3	*part3	*part2	*part2	*part1	*part1
*staff4	*staff4	*staff3	*staff3	*staff2	*staff2	*staff1	*staff1
*Iempty	*	*Itenor	*	*Iempty	*	*Iempty	*
*I"BASVS	*	*I"TENOR	*	*I"ALTVS	*	*I"DISCANTVS	*
*I'B	*	*I'T	*	*I'A	*	*I'S	*
*ICvox	*	*ICvox	*	*ICvox	*	*ICvox	*
*clefF3	*	*clefC4	*	*clefC3	*	*clefC1	*
*k[]	*	*k[]	*	*k[]	*	*k[]	*
*C:	*	*C:	*	*C:	*	*C:	*
*M2/1	*	*M2/1	*	*M2/1	*	*M2/1	*
*met(C|)	*	*met(C|)	*	*met(C|)	*	*met(C|)	*
=1-	=1-	=1-	=1-	=1-	=1-	=1-	=1-
1G\	Ve-	1G/	Ve-	2r	.	1dd\	Ve-
.	.	.	.	1g\	Ve-	.	.
*	*	*	*	*	*	*2\right	*
!LO:TX:t=P:problem=kreska pseudotakotwa	!	!LO:TX:t=P:problem=kreska pseudotakotwa	!	!	!	!	!
1D/	-ni	1A\	-ni	.	.	2.dd\	-ni
!	!	!	!	!LO:TX:t=P:problem=kreska pseudotakotwa	!	!	!
*	*	*	*	*2\right	*	*	*
.	.	.	.	2f\	-ni	.	.
!	!	!	!	!	!	!LO:TX:t=P:problem=kreska pseudotakotwa	!
.	.	.	.	.	.	4cc\	.
=2-	=2-	=2-	=2-	=2-	=2-	=2-	=2-
*	*	*lig	*	*	*	*	*
2G\	cre-	1G/	cre-	2g\	cre-	4b\	.
.	.	.	.	.	.	4a\	.
2C/	.	.	.	2e\	-a-	2g/	.
*lig	*	*	*	*	*	*	*
1D/	-a-	1F/	.	1f\	-tor	2d/	.
.	.	.	.	.	.	2.a\	.
!	!	!	!	!	!	!LO:TX:t=P:problem=kropka między nutą a kreską pseudotakotwą	!
*	*	*Xlig	*	*	*	*	*
=3-	=3-	=3-	=3-	=3-	=3-	=3-	=3-
!	!	!	!	!LO:TX:t=P:problem=kreska pseudotakotwa	!	!	!
1E/	.	1G/	-a-	1e\	.	.	.
.	.	.	.	.	.	4g/	cre-
.	.	.	.	.	.	1g\	-a-
*Xlig	*	*	*	*	*	*	*
!LO:TX:t=P:problem=kreska pseudotakotwa	!	!	!	!	!	!	!
*	*	*lig	*	*	*	*	*
1D/	-tor	1A\	-tor	2r	.	.	.
*	*	*	*	*lig	*	*	*
.	.	.	.	1d\	spi-	2f/	-tor
=4-	=4-	=4-	=4-	=4-	=4-	=4-	=4-
!	!	!LO:TX:t=P:problem=kreska pseudotakotwa	!	!	!	!	!
2r	.	1G/	.	.	.	2g/	.
*2\right	*	*	*	*	*	*	*
2G\	spi-	.	.	1g\	.	2.dd\	.
*lig	*	*Xlig	*	*Xlig	*	*	*
1A\	-ri-	1c\	spi-	.	.	.	.
.	.	.	.	.	.	4cc\	spi-
!	!	!	!	!LO:TX:t=P:problem=kreska pseudotakotwa	!	!	!
.	.	.	.	2f\	-ri-	1cc\	.
=5-	=5-	=5-	=5-	=5-	=5-	=5-	=5-
1G\	.	1d\	-ri-	1g\	-tus	.	.
.	.	.	.	.	.	2b\	-ri-
!	!	!	!	!	!	!LO:TX:t=P:problem=kreska pseudotakotwa	!
*Xlig	*	*	*	*	*ij	*	*
!LO:TX:t=P:problem=kreska pseudotakotwa	!	!LO:TX:t=P:problem=kreska pseudotakotwa	!	!LO:TX:t=P:problem=kreska pseudotakotwa	!	!	!
1C/	-tus	1c\,	-tus	1g\	spi-	1cc\,	-tus
=6-	=6-	=6-	=6-	=6-	=6-	=6-	=6-
!	!	!	!	!	!	!LO:TX:t=P:problem=kreska pseudotakotwa	!
2r	.	1c\	men-	2.e\	-ri-	1g\	men-
1c\	men-	.	.	.	.	.	.
.	.	.	.	4f\	.	.	.
!	!	!LO:TX:t=P:problem=kreska pseudotakotwa	!	!LO:TX:t=P:problem=kreska pseudotakotwa	!	!	!
.	.	1G/	-tes	1g\	-tus	1dd\	-tes
*	*	*	*	*	*Xij	*	*
!LO:TX:t=P:problem=kreska pseudotakotwa	!	!	!	!	!	!	!
2B\	-tes	.	.	.	.	.	.
=7-	=7-	=7-	=7-	=7-	=7-	=7-	=7-
!	!	!	!	!	!	!LO:TX:t=P:problem=kreska pseudotakotwa	!
4c\	.	1A\	tu-	2r	.	1cc\	.
4B\	.	.	.	.	.	.	.
4A\	tu-	.	.	2a\	men-	.	.
4G\	.	.	.	.	.	.	.
4F/	.	1c\	-o-	2a\	-tes	2r	.
4G\	.	.	.	.	.	.	.
!	!	!	!	!LO:TX:t=P:problem=kreska pseudotakotwa	!	!	!
2A\	-o-	.	.	2f\	.	1cc\	tu-
=8-	=8-	=8-	=8-	=8-	=8-	=8-	=8-
*custos:AA	*	*	*	*	*	*	*
!LO:TX:t=P:problem=kreska pseudotakotwa	!	!	!	!	!	!	!
*	*	*lig	*	*	*	*	*
1G\	-rum	1d\	-rum	1g\	tu-	.	.
!	!	!	!	!	!	!LO:TX:t=P:problem=kreska pseudotakotwa	!
.	.	.	.	.	.	2b\	-o-
!LO:LB:g=original	!	!	!	!	!	!	!
!	!	!LO:TX:t=P:problem=kreska pseudotakotwa	!	!	!	!	!
2r	.	1c\,	.	2g\	-o-	2cc\	-rum
2A\	V-	.	.	1a\	-rum	2.ee\	.
*	*	*Xlig	*	*	*	*	*
=9-	=9-	=9-	=9-	=9-	=9-	=9-	=9-
1B-X\	.	1d\	Vi-	.	.	.	.
.	.	.	.	.	.	4dd\	Vi-
!	!	!	!	!LO:TX:t=P:problem=kreska pseudotakotwa	!	!	!
.	.	.	.	2g\	Vi-	1dd\	-si-
*	*	*	*	*custos:f	*	*	*
!LO:TX:t=P:problem=kreska pseudotakotwa	!	!	!	!LO:TX:t=P:problem=kreska pseudotakotwa	!	!	!
1A\	.	1e\	-si-	1a\	.	.	.
!	!	!	!	!	!	!LO:TX:t=P:problem=kreska pseudotakotwa	!
.	.	.	.	.	.	2cc\	.
!	!	!	!	!LO:LB:g=original	!	!	!
=10-	=10-	=10-	=10-	=10-	=10-	=10-	=10-
*	*	*	*	*	*	*custos:A	*
!	!	!LO:TX:t=P:problem=kreska pseudotakotwa	!	!	!	!	!
4D/	.	1d\,	-ta	1f\	-si-	2dd\	-ta
4E/	.	.	.	.	.	.	.
!	!	!	!	!	!	!LO:LB:g=original	!
4F/	.	.	.	.	.	2.a\	im-
4G\	-si-	.	.	.	.	.	.
!	!	!	!	!LO:TX:t=P:problem=kreska pseudotakotwa	!	!	!
1A\	-ta	1c\	im-	1e\	-ta	.	.
.	.	.	.	.	.	4b\	-ple
.	.	.	.	.	.	1cc\	.
=11-	=11-	=11-	=11-	=11-	=11-	=11-	=11-
*	*	*lig	*	*	*	*	*
1G\,	.	1d\	-ple	2r	.	.	.
!	!	!	!	!	!	!LO:TX:t=P:problem=kreska pseudotakotwa	!
.	.	.	.	2g\	im-	2b\	.
!	!	!LO:TX:t=P:problem=kreska pseudotakotwa	!	!	!	!	!
1C/	im-	1e\,	.	2g\	-ple	2.cc\	su-
.	.	.	.	2g\	su-	.	.
.	.	.	.	.	.	4dd\	-per-
!	!	!	!	!LO:TX:t=P:problem=kreska pseudotakotwa	!	!	!
*	*	*Xlig	*	*	*	*	*
=12-	=12-	=12-	=12-	=12-	=12-	=12-	=12-
*	*	*lig	*	*	*	*	*
2C/	-ple-	1c\	su-	2e\	-per-	1ee\	-na
2C/	-su-	.	.	2.a\	-na	.	.
*	*	*custos:c	*	*	*	*	*
!	!	!	!	!	!	!LO:TX:t=P:problem=kreska pseudotakotwa	!
1G\	-per-	1B\	.	.	.	1dd\	.
.	.	.	.	4g\	.	.	.
.	.	.	.	1g\	gra-	.	.
*	*	*Xlig	*	*	*	*	*
!	!	!LO:LB:g=original	!	!	!	!	!
=13-	=13-	=13-	=13-	=13-	=13-	=13-	=13-
!LO:TX:t=P:problem=kreska pseudotakotwa	!	!	!	!	!	!	!
*	*	*lig	*	*	*	*	*
1D/	-na	1A\	.	.	.	2r	.
!	!	!	!	!LO:TX:t=P:problem=kreska pseudotakotwa	!	!	!
*	*	*	*	*	*	*	*ij
.	.	.	.	2f#X\	-ti-	2dd\	im-
2r	.	1G/	-per-	1g\	-a	2dd\	-ple
*	*ij	*	*	*	*	*	*
2G\	im-	.	.	.	.	2dd\	su-
!	!	!	!	!	!	!LO:TX:t=P:problem=kreska pseudotakotwa	!
*	*	*Xlig	*	*	*	*	*
=14-	=14-	=14-	=14-	=14-	=14-	=14-	=14-
*	*	*lig	*	*	*ij	*	*
2F/	-ple	1c\	-na	2r	.	1cc\	-per-
!LO:TX:t=P:problem=kreska pseudotakotwa	!	!	!	!	!	!	!
2E/	su-	.	.	1g\	gra-	.	.
!	!	!LO:TX:t=P:problem=kreska pseudotakotwa	!	!	!	!LO:TX:t=P:problem=kreska pseudotakotwa	!
1D/	-per-	1d\	.	.	.	1a\	-na
.	.	.	.	2f\	.	.	.
!	!	!	!	!LO:TX:t=P:problem=kreska pseudotakotwa	!	!	!
*	*	*Xlig	*	*	*	*	*
=15-	=15-	=15-	=15-	=15-	=15-	=15-	=15-
1E/	.	1G/	gra-	1g\	-ti-	2r	.
.	.	.	.	.	.	2dd\	im-
*	*	*lig	*	*	*	*	*
!	!	!	!	!LO:TX:t=P:problem=kreska pseudotakotwa	!	!	!
1D/	-na	1A\	-ti-	1d\	-a	2dd\	-ple
*	*Xij	*	*	*	*Xij	*	*
!	!	!	!	!	!	!LO:TX:t=P:problem=kreska pseudotakotwa	!
.	.	.	.	.	.	2dd\	su-
=16-	=16-	=16-	=16-	=16-	=16-	=16-	=16-
2.C/	gra-	1c\	.	2r	.	1ee\	-per-
.	.	.	.	1g\	qu(ae)	.	.
4D/	.	.	.	.	.	.	.
*	*	*Xlig	*	*	*	*	*
!	!	!LO:TX:t=P:problem=kreska pseudotakotwa	!	!	!	!	!
2E/	.	1c\	-a	.	.	2cc\	-na
*custos:DD	*	*	*	*	*	*	*
!	!	!	!	!	!	!LO:TX:t=P:problem=kreska pseudotakotwa	!
2F/	.	.	.	1f\	tu	2a\	gra-
!LO:LB:g=original	!	!	!	!	!	!	!
=17-	=17-	=17-	=17-	=17-	=17-	=17-	=17-
*	*	*lig	*	*	*	*	*
1D/	-ti-	1B\	qu(ae)	.	.	1dd\	-ti-
.	.	.	.	4e\	cre-	.	.
!	!	!	!	!LO:TX:t=P:problem=kreska pseudotakotwa	!	!	!
.	.	.	.	4d\	.	.	.
!	!	!LO:TX:t=P:problem=kreska pseudotakotwa	!	!	!	!	!
2C/	-a	1c\	.	1e\	-a-	2g/	-a
*	*	*	*	*	*	*	*ij
2F/	qu(ae)	.	.	.	.	[y2a\	gra-
!LO:TX:t=P:problem=kreska pseudotakotwa	!	!	!	!	!	!LO:TX:t=P:problem=kropka między nutą a kreską pseudotakotwą	!
*	*	*Xlig	*	*	*	*	*
=18-	=18-	=18-	=18-	=18-	=18-	=18-	=18-
!	!	!LO:TX:t=P:problem=kreska pseudotakotwa	!	!	!	!LO:N:xstem:cue	!
2F/	tu-	1A\	tu	2c/	-ſti	4a\]	.
.	.	.	.	.	.	4g/	-ti-
2F/	-cre-	.	.	4A/	pe-	1f/	-a
!	!	!	!	!LO:TX:t=P:problem=kreska pseudotakotwa	!	!	!
.	.	.	.	4B/	-cto-	.	.
*	*	*lig	*	*	*	*	*Xij
!	!	!	!	!LO:TX:t=P:problem=kreska pseudotakotwa	!	!	!
1C/	-a-	1G/	cre-	1c\	-ra	.	.
!	!	!	!	!	!	!LO:TX:t=P:problem=kreska pseudotakotwa	!
.	.	.	.	.	.	2e/	.
=19-	=19-	=19-	=19-	=19-	=19-	=19-	=19-
*	*	*	*	*custos:c	*	*	*
2D/	-ſti	1F/	.	2r	.	4f/	.
.	.	.	.	.	.	4g/	.
!	!	!	!	!LO:LB:g=original	!	!	!
*	*	*	*	*	*ij	*	*
1F\	pe-	.	.	1c\	quae	4a\	.
.	.	.	.	.	.	4b\	.
*	*	*	*	*	*	*custos:c	*
!	!	!	!	!	!	!LO:LB:g=original	!
*	*	*Xlig	*	*	*	*	*
.	.	1A\	-a-	.	.	4cc\	qu(ae)
.	.	.	.	.	.	4a\	.
!LO:TX:t=P:problem=kreska pseudotakotwa	!	!	!	!LO:TX:t=P:problem=kreska pseudotakotwa	!	!LO:TX:t=P:problem=kropka między nutą a kreską pseudotakotwą	!
2F/	-cto-	.	.	2f\	.	[y2cc\	tu
=20-	=20-	=20-	=20-	=20-	=20-	=20-	=20-
!	!	!LO:TX:t=P:problem=kreska pseudotakotwa	!	!	!	!LO:N:xstem:cue	!
1F\	-ra	1A\	-ſti	2.f\	tu-	4cc\]	.
.	.	.	.	.	.	4b\	cre-
.	.	.	.	.	.	2.a\	-a-
.	.	.	.	4e\	-cre-	.	.
!	!	!	!	!LO:TX:t=P:problem=kreska pseudotakotwa	!	!	!
*	*ij	*	*	*	*	*	*
1G\	tu	1B-X\	.	1d\	-a-	.	.
.	.	.	.	.	.	4g/	-ſti
.	.	.	.	.	.	1g\	pec-
=21-	=21-	=21-	=21-	=21-	=21-	=21-	=21-
2.D/	cre-	1A\	.	1.d\	-ſti	.	.
!	!	!	!	!	!	!LO:TX:t=P:problem=kreska pseudotakotwa	!
.	.	.	.	.	.	2f/	-to-
4C/	-a-	.	.	.	.	.	.
2BB/	-ſti	1G/	.	.	.	2g/	-ra
*	*	*	*	*	*	*	*ij
2C/	pe-	.	.	4c/	pe-	2g/	cre-
!	!	!	!	!LO:TX:t=P:problem=kreska pseudotakotwa	!	!	!
.	.	.	.	4B/	.	.	.
=22-	=22-	=22-	=22-	=22-	=22-	=22-	=22-
*	*	*lig	*	*	*	*	*
!	!	!	!	!	!	!LO:TX:t=P:problem=kreska pseudotakotwa	!
1AA/	-cto-	1F#X/	pe-	1c\	.	1a\	-a-
0.GG/	-ra	1G/	-cto-	2.B/	.	2b\	-sti
.	.	.	.	.	.	[y2dd\	pe-
.	.	.	.	4c/	-cto-	.	.
!	!	!	!	!	!	!LO:TX:t=P:problem=kropka między nutą a kreską pseudotakotwą	!
*	*Xij	*Xlig	*	*	*	*	*
=23-	=23-	=23-	=23-	=23-	=23-	=23-	=23-
!	!	!	!	!	!	!LO:N:xstem:cue	!
.	.	0G/	-ra	0d\	-ra	4dd\]	.
*	*	*	*	*	*Xij	*	*
.	.	.	.	.	.	4cc\	-cto-
.	.	.	.	.	.	4b\	.
.	.	.	.	.	.	4a\	.
.	.	.	.	.	.	1b\	-ra
*	*	*	*	*	*	*	*Xij
==	==	==	==	==	==	==	==
*-	*-	*-	*-	*-	*-	*-	*-
!!!system-decoration: s1,s2,s3,s4
!!!AIN: 3 empty 1 tenor
!!!ENC: Anastazja Marusiak
!!!END: 2022-01-17
!!!ENC: Leszek Kubiak
!!!END: 2022-01-25
